X:1
T:Title
%%score { ( 1 3 5 ) | ( 2 4 ) }
L:1/8
Q:1/4=144
M:4/2
K:G
V:1 treble nm="Grand Piano"
V:3 treble 
V:5 treble 
V:2 bass 
V:4 bass 
V:1
 D4 D4 E4 E4 | G8 z8 | [B,DF]4 [B,DF]4 [B,F^G]4 [B,FG]4 | B8 z8 | [^CEA]4 [CEA]4 E4 F4 | G8 z8 | %6
w: Caryl~Florio * * *||||||
 [^CEA]4 [CEA]4 E4 F4 | G8 F8[K:bass] | [^DB]4 [DB]4 F4 G4 | A8 z8 | [^DB]4 [B,DB]4 G4 A4 | z8 d8 | %12
w: ||||||
 d4 f2 e2 d4 c4 | B8 z8 | z8 F8 |[M:10/4] [G,E]8 z4 z8 |[M:2/4] [A,CE]4 |[M:8/4] [^G,B,E]12 z4 |] %18
w: ||||||
V:2
 [G,B,]4 [G,B,]4 [E,G,B,]4 [C,G,C]4 | A,,4 z2 G2 D,4 C,4 | B,,4 B,,4 D,4 D,4 | %3
 ^C,4 z2[K:treble] B2[K:bass] F,4 ^G,4 | A,4 A,,4 [G,A,^C]4 [F,A,D]4 | [E,B,D]4 [A,,A,]4 D,4 F,4 | %6
 A,4 A,,4 [G,A,^C]4 [F,A,D]4 | [E,B,D]4 [A,,A,]4 [A,D]8 | [B,,B,]4 [B,,B,]4 [A,B,^D]4 [G,B,E]4 | %9
 [F,CE]4 [B,,B,]4 E,4 G,4 | B,4 B,,4 [E,B,E]4 [F,B,^D]4 | [G,B,E]4 [A,EG]4 [DF]8 | %12
 [B,DG]4 [CG]4 [B,DG]4 [A,DF]4 | [G,DG]4[K:bass] [D,C]4 [E,B,E]4 [E,A,]2 [E,G,]2 | %14
 ^D,4 E,4 A,,4 z2 E2 |[M:10/4] E,8 z4 z8 |[M:2/4] A,,4 |[M:8/4] E,12 z4 |] %18
V:3
 x16 | [A,C]4 [A,C]4 [A,DF]8 | x16 | [^CF]4 [C=F]4 [C^FA]8 | x16 | z4 z2 A2 [A,DF]8 | x16 | %7
 z4 ^C4 z8[K:bass] | x16 | z4 z2 B2 [B,EG]8 | x16 | B4 ^c4 z4 C4 | x16 | z4 z2 A2 G4 [FA]2 [GB]2 | %14
 [B,FA]4 [B,EG]4 [CE]4 [A,^D]4 |[M:10/4] x20 |[M:2/4] x4 |[M:8/4] x16 |] %18
V:4
 x16 | z4 A,,4 z8 | x16 | z4 ^C,4[K:treble][K:bass] z8 | x16 | x16 | x16 | z8 D,4 z4 | x16 | x16 | %10
 x16 | x16 | x16 | x4[K:bass] x12 | z8 z4 B,,4 |[M:10/4] x20 |[M:2/4] x4 |[M:8/4] x16 |] %18
V:5
 x16 | x16 | x16 | x16 | x16 | z4 C4 z8 | x16 | z4 z2 A2 z4[K:bass] C,4 | x16 | z4 ^D4 z8 | x16 | %11
 x16 | x16 | z4 F4 z8 | x16 |[M:10/4] x20 |[M:2/4] x4 |[M:8/4] x16 |] %18

